static/fa/svgs/regular/face-laugh-wink.svg

<svg xmlns="http://www.w3.org/2000/svg" viewBox="0 0 512 512"><!--! Font Awesome Free 6.1.1 by @fontawesome - https://fontawesome.com License - https://fontawesome.com/license/free (Icons: CC BY 4.0, Fonts: SIL OFL 1.1, Code: MIT License) Copyright 2022 Fonticons, Inc.--><path d="M130.7 313.9c-4.2-13.5 7.1-25.9 20.4-25.9h213.4c14.2 0 25.4 12.4 21.3 25.9-17.7 54.5-67.6 94.1-127.6 94.1s-110.7-39.6-127.5-94.1zM208.4 192c0 17.7-14.4 32-32 32-17.7 0-32-14.3-32-32s14.3-32 32-32c17.6 0 32 14.3 32 32zm73.5 22.6c-8-7.6-8.4-20.2-.9-28.3 14.6-15.5 35.3-22.3 54.6-22.3 18.5 0 40.1 6.8 54.6 22.3 7.6 8.1 7.2 20.7-.9 28.3-8.1 7.5-20.7 7.1-28.3-.9-5.4-5.9-14.7-9.7-25.4-9.7-11.5 0-19.9 3.8-25.4 9.7-7.5 8-20.2 8.4-28.3.9zM512 256c0 141.4-114.6 256-256 256S0 397.4 0 256 114.6 0 256 0s256 114.6 256 256zM256 48C141.1 48 48 141.1 48 256s93.1 208 208 208 208-93.1 208-208S370.9 48 256 48z"/></svg>

<svg xmlns="http://www.w3.org/2000/svg" viewBox="0 0 512 512"><!--! Font Awesome Free 6.1.1 by @fontawesome - https://fontawesome.com License - https://fontawesome.com/license/free (Icons: CC BY 4.0, Fonts: SIL OFL 1.1, Code: MIT License) Copyright 2022 Fonticons, Inc. --><path d="M130.7 313.9C126.5 300.4 137.8 288 151.1 288H364.5C378.7 288 389.9 300.4 385.8 313.9C368.1 368.4 318.2 408 258.2 408C198.2 408 147.5 368.4 130.7 313.9V313.9zM208.4 192C208.4 209.7 194 224 176.4 224C158.7 224 144.4 209.7 144.4 192C144.4 174.3 158.7 160 176.4 160C194 160 208.4 174.3 208.4 192zM281.9 214.6C273.9 207 273.5 194.4 281 186.3C295.6 170.8 316.3 164 335.6 164C354.1 164 375.7 170.8 390.2 186.3C397.8 194.4 397.4 207 389.3 214.6C381.2 222.1 368.6 221.7 361 213.7C355.6 207.8 346.3 204 335.6 204C324.1 204 315.7 207.8 310.2 213.7C302.7 221.7 290 222.1 281.9 214.6zM512 256C512 397.4 397.4 512 256 512C114.6 512 0 397.4 0 256C0 114.6 114.6 0 256 0C397.4 0 512 114.6 512 256zM256 48C141.1 48 48 141.1 48 256C48 370.9 141.1 464 256 464C370.9 464 464 370.9 464 256C464 141.1 370.9 48 256 48z"/></svg>
